packages/icons/svg/Social_Share_ShareIOS_24px.svg

<svg xmlns="http://www.w3.org/2000/svg" viewBox="0 0 24 24"><path d="M9.71 6.7L11 5.41v9.09a1 1 0 002 0V5.41l1.29 1.29a1 1 0 101.42-1.41l-3-3a1 1 0 00-1.42 0l-3 3a1 1 0 000 1.41 1 1 0 001.42 0z"/><path d="M19 4h-1a1 1 0 000 2v12H6V6a1 1 0 000-2H5a1 1 0 00-1 1v14a1 1 0 001 1h14a1 1 0 001-1V5a1 1 0 00-1-1z"/></svg>

<svg xmlns="http://www.w3.org/2000/svg" viewBox="0 0 24 24"><defs></defs><g id="Icon"><path  d="M9.71,6.7,11,5.41V14.5a1,1,0,0,0,2,0V5.41L14.29,6.7a1,1,0,1,0,1.42-1.41l-3-3a1,1,0,0,0-1.42,0l-3,3a1,1,0,0,0,0,1.41A1,1,0,0,0,9.71,6.7Z"/><path  d="M19,4H18a1,1,0,0,0,0,2V18H6V6A1,1,0,0,0,6,4H5A1,1,0,0,0,4,5V19a1,1,0,0,0,1,1H19a1,1,0,0,0,1-1V5A1,1,0,0,0,19,4Z"/></g></svg>
